X: 35849
T: Sam Kelly's
R: jig
M: 6/8
K: Amixolydian
cAA GAA|cde ~g3|agf ~g3|afd ged|
cAA GAA|cde ~g3|agf ~g3|afd ged:|
|:cee dee|cee Bcd|cee def|ged edB|
cee dee|cee efg|agf ~g3|afd ged:|

